resources/ic_check.svg

<svg width="24" height="24" viewBox="0 0 24 24" fill="none" xmlns="http://www.w3.org/2000/svg">
<rect width="24" height="24" fill="#D8D8D8" fill-opacity="0.01"/>
<path d="M6.70711 10.2929C6.31658 9.90237 5.68342 9.90237 5.29289 10.2929C4.90237 10.6834 4.90237 11.3166 5.29289 11.7071L6.70711 10.2929ZM10.5 15.5L9.79289 16.2071C10.1834 16.5976 10.8166 16.5976 11.2071 16.2071L10.5 15.5ZM18.7071 8.70711C19.0976 8.31658 19.0976 7.68342 18.7071 7.29289C18.3166 6.90237 17.6834 6.90237 17.2929 7.29289L18.7071 8.70711ZM5.29289 11.7071L9.79289 16.2071L11.2071 14.7929L6.70711 10.2929L5.29289 11.7071ZM11.2071 16.2071L18.7071 8.70711L17.2929 7.29289L9.79289 14.7929L11.2071 16.2071Z" fill="#222222"/>
</svg>

<svg width="24" height="24" fill="none" xmlns="http://www.w3.org/2000/svg"><path fill="#D8D8D8" fill-opacity=".01" d="M0 0h24v24H0z"/><path d="M6.707 10.293a1 1 0 1 0-1.414 1.414l1.414-1.414zM10.5 15.5l-.707.707a1 1 0 0 0 1.414 0L10.5 15.5zm8.207-6.793a1 1 0 0 0-1.414-1.414l1.414 1.414zm-13.414 3 4.5 4.5 1.414-1.414-4.5-4.5-1.414 1.414zm5.914 4.5 7.5-7.5-1.414-1.414-7.5 7.5 1.414 1.414z" fill="#222"/></svg>
